!!!COM: Palestrina, Giovanni Perluigi da
!!!OPR: Missa Illumina oculos meos
!!!OMD: Sanctus
!!!OTL: Pleni
**kern	**kern	**kern	**kern
*Ibass	*Itenor	*Icalto	*Icalto
!Bassus	!Tenor	!Altus 2	!Altus 1
*clefF4	*clefGv2	*clefG2	*clefG2
*k[]	*k[]	*k[]	*k[]
*E:phr	*E:phr	*E:phr	*E:phr
*M4/2	*M4/2	*M4/2	*M4/2
=47	=47	=47	=47
0A	0r	0r	0r
=48	=48	=48	=48
1G	0r	0r	0r
1A	.	.	.
=49	=49	=49	=49
2.c	0r	0r	0e
4B	.	.	.
2A	.	.	.
2G	.	.	.
=50	=50	=50	=50
1F	0r	0r	1d
2E	.	.	1e
[2G	.	.	.
=51	=51	=51	=51
4G]	1r	0r	2.g
4F	.	.	.
4E	.	.	.
4D	.	.	4f
2C	[1A	.	2e
2D	.	.	2d
=52	=52	=52	=52
4AA	1A]	0r	1c
4BB	.	.	.
4C	.	.	.
4D	.	.	.
1E	1G	.	1B
=53	=53	=53	=53
0AA	1A	1r	1c
.	2.c	[1e	2.A
.	4B	.	4B
=54	=54	=54	=54
0r	2A	1e]	2c
.	2G	.	2B
.	1F	1d	1A
=55	=55	=55	=55
0r	2E	1e	2B
.	2.c	.	2.e
.	.	2.g	.
.	4B	.	4d
.	2G	.	2B
.	.	4f	.
=56	=56	=56	=56
0r	2A	2e	2c
.	2.B	2d	2d
.	.	1c	[1e
.	4A	.	.
.	[2A	.	.
=57	=57	=57	=57
0E	2A]	0B	0e]
.	4G#	.	.
.	4F#	.	.
.	1G#	.	.
=58	=58	=58	=58
1D	2r	1d	1f
.	1A	.	.
1E	.	2c	2.e
.	2G	2B	.
.	.	.	4d
=59	=59	=59	=59
2.F	2A	2.A	2c
.	4D	.	1f
4E	4E	4G	.
2D	4F	4A	.
.	4G	4B	.
2C	[2A	4c	[2e
.	.	4A	.
=60	=60	=60	=60
1BB	2A]	2.d	4e]
.	.	.	4d
.	2G#	.	1d
.	.	4e	.
[1AA	1A	2f	.
.	.	[2e	4c
.	.	.	4B
=61	=61	=61	=61
0AA]	1r	2e]	2c
.	.	4A	2.e
.	.	4B	.
.	2.A	4c	.
.	.	4d	4d
.	.	[2e	4c
.	4B	.	4B
=62	=62	=62	=62
0r	2c	2e]	2A
.	2G	2.d	2.B
.	1A	.	.
.	.	4c	4A
.	.	4c	[2A
.	.	8B	.
.	.	8A	.
=63	=63	=63	=63
1r	[0E	1B	2A]
.	.	.	2G#
2.AA	.	1A	2A
.	.	.	[2c
4BB	.	.	.
=64	=64	=64	=64
2C	0E]	1G	2c]
2GG	.	.	2B
1AA	.	1c	1A
=65	=65	=65	=65
2EE	2r	1B	1G
2E	2.B	.	.
2E	.	1e	1r
.	4G	.	.
2C	[2c	.	.
=66	=66	=66	=66
1F	2c]	2c	1A
.	4B	2d	.
.	4A	.	.
1E	2c	1e	2A
.	2B	.	2G
=67	=67	=67	=67
4AA	1A	1.e	1.c
4BB	.	.	.
4C	.	.	.
4D	.	.	.
4E	1G	.	.
4F	.	.	.
4G	.	2d	2B
4E	.	.	.
=68	=68	=68	=68
4F	1A	1c	4A
4G	.	.	4B
2.A	.	.	4c
.	.	.	4d
.	1E	1B	[1e
4G#	.	.	.
4G#	.	.	.
8F#	.	.	.
8G#	.	.	.
=69	=69	=69	=69
1A	2r	2r	1e]
.	2c	2e	.
2r	2c	2e	1r
2G	2B	2d	.
=70	=70	=70	=70
2G	1.e	1g	2r
2E	.	.	2g
1A	.	1c	2e
.	2c	.	2f
=71	=71	=71	=71
[0G	2d	0r	1.g
.	1e	.	.
.	4d	.	4f
.	4c	.	4e
=72	=72	=72	=72
0G]	2B	0r	2d
.	1c	.	2c
.	.	.	1d
.	2B	.	.
=73	=73	=73	=73
1C	2A	2r	2r
.	4G	2e	2c
.	4F	.	.
1r	2E	2e	2c
.	2F	2c	2A
=74	=74	=74	=74
1r	2D	1f	2d
.	2A	.	2c
1E	2A	[1e	1B
.	2G	.	.
=75	=75	=75	=75
2E	1.c	1e]	2r
2C	.	.	2e
1F	.	2r	2c
.	4B	2A	2d
.	4A	.	.
=76	=76	=76	=76
[0E	2c	2A	1.e
.	2B	2G	.
.	[1e	2c	.
.	.	4B	4d
.	.	4A	4c
=77	=77	=77	=77
0E]	0e]	2G	2B
.	.	1A	2A
.	.	.	1B
.	.	2G#	.
=78	=78	=78	=78
1AA	2r	2A	0e
.	2A	2c	.
1r	2A	2c	.
.	2G	2B	.
=79	=79	=79	=79
1AA	1.c	4A	2r
.	.	4B	.
.	.	4c	2A
.	.	4d	.
2AA	.	[1e	2A
2GG#	2B	.	2B
=80	=80	=80	=80
0AA	0A	0e]	0c
=81	=81	=81	=81
0E	0G#	0e	0B
*-	*-	*-	*-
!!!CDT: 1525/^1526/-1594/2/2
!!!OCY: Italia
!!!AGN: Mass (Parody)
!!!AST: renaissance, vocal
!!!ASW: Motet (Silva)
!!!PWK: Masses, Book 10
!!!RNB: Cadence finals: G,C,A
!!!YOR: Le Opere Complete, v. 27, p. 155
!!!YOO: Rome, Italy: Fratelli Scalera
!!!END: 1992//
!!!EED: John Miller
!!!YEC: Copyright 2000, John Miller
!!!YEN: United States of America
!!!YEM: Rights to all derivative electronic formats reserved.
!!!YEM: Refer to licensing agreement for further details.
!!!YEM: This file must be accompanied by the licensing agreement.
!!!YEM: A copy of the licensing agreement may be found at http://www.music-cog.ohio-state.edu/HumdrumDatabases/Palestrina/license.txt
!!!EMD: converted to Humdrum by Bret Aarden
